X:1
T:Title
%%score { 1 | ( 2 3 ) }
L:1/8
Q:1/4=100
M:4/4
K:Bb
V:1 treble nm="Grand Piano"
V:2 bass 
V:3 bass 
V:1
 [DF]>[DF] [FB]>c d2 [DB]2 | [B,EG]2 [B,GB]>[B,EG] [B,DF]4 | %2
w: John~R.~Sweney * * * * *||
 [A,CF]>[A,CF] [B,EG]>[CEA] [DFB]2 [DFB]2 | [=EB]>[EA] [EB]>[Ed] c4 | d>d d>e [Fd]2 [DB]2 | %5
w: |||
 [B,D]>[CE] [DF]>[EG] [DF]4 | [EG]>[EA] [FB]>[Fc] [Fd]>[Fe] [Fd]>[Gc] | B2 A>A [DB]4 | %8
w: |||
 [Ac]>[GB] [FA]>[GB] [Fc]2 [EF]2 | [DF]>[DF] [FB]>c d4 | c>c c>d c2 A2 | [=EG]>[GB] [FA]>[EG] F4 | %12
w: ||||
 d>d d>e [Fd]2 [DB]2 | [B,D]>[CE] [DF]>[EG] [DF]4 | [EG]>[EA] [FB]>[Fc] [Fd]>[Fe] [Fd]>[Gc] | %15
w: |||
 [FB]2 [EA]2 [DB]4 |] %16
w: |
V:2
 [B,,B,]>[B,,B,] [D,B,]>[K:treble][F,A,F] [B,F]2[K:bass] F,B, | E,2 E,>E, B,,4 | %2
 F,>F, F,>F, B,2 B,,2 | [C,C]>[C,C] [C,C]>[C,B,][K:treble] [F,A,F]4 | %4
 [B,F]>[B,F] [B,F]>[B,G][K:bass] [B,,B,]2 [B,,F,]2 | [B,,F,]>[B,,F,] [B,,B,]>[B,,B,] [B,,B,]4 | %6
 [E,B,]>[E,B,] [D,B,]>[C,A,] [B,,B,]>[C,A,] [D,B,]>[E,E] | [F,DF]2 [F,CE]>[F,CE] [B,,B,]4 | %8
 [F,C]>[F,C] [F,C]>[F,C] [F,A,]2 [F,C]2 | [B,,B,]>[B,,B,] [D,B,]>[K:treble][F,A,F] [B,F]4 | %10
 [F,A,F]>[F,A,F] [F,A,F]>[K:bass][F,B,F] [F,A,F]2 [F,CF]2 | [C,C]>[C,C] [C,C]>[C,B,] [F,A,]4 | %12
 [B,F]>[B,F] [B,F]>[B,G][K:bass] [B,,B,]2 [B,,F,]2 | [B,,F,]>[B,,F,] [B,,B,]>[B,,B,] [B,,B,]4 | %14
 [E,B,]>[E,B,] [D,B,]>[C,A,] [B,,B,]>[C,A,] [D,B,]>[E,E] | [F,D]2 [F,C]2 [B,,B,]4 |] %16
V:3
 z4[K:treble] z2[K:bass] B,,2 | x8 | x8 | x4[K:treble] x4 | x4[K:bass] x4 | x8 | x8 | x8 | x8 | %9
 x7/2[K:treble] x9/2 | x7/2[K:bass] x9/2 | x8 | x4[K:bass] x4 | x8 | x8 | x8 |] %16

